; generated by PrusaSlicer 2.6.0+MacOS-x64 on 2023-12-10 at 00:03:35 UTC


;
;
; 

; external perimeters extrusion width = 0.45mm
; perimeters extrusion width = 0.45mm
; infill extrusion width = 0.45mm
; solid infill extrusion width = 0.45mm
; top infill extrusion width = 0.40mm
; first layer extrusion width = 0.42mm

; external perimeters extrusion width = 0.45mm
; perimeters extrusion width = 0.45mm
; infill extrusion width = 0.45mm
; solid infill extrusion width = 0.45mm
; top infill extrusion width = 0.40mm
; first layer extrusion width = 0.42mm

; external perimeters extrusion width = 0.45mm
; perimeters extrusion width = 0.45mm
; infill extrusion width = 0.45mm
; solid infill extrusion width = 0.45mm
; top infill extrusion width = 0.40mm
; first layer extrusion width = 0.42mm

; external perimeters extrusion width = 0.45mm
; perimeters extrusion width = 0.45mm
; infill extrusion width = 0.45mm
; solid infill extrusion width = 0.45mm
; top infill extrusion width = 0.40mm
; first layer extrusion width = 0.42mm

; external perimeters extrusion width = 0.45mm
; perimeters extrusion width = 0.45mm
; infill extrusion width = 0.45mm
; solid infill extrusion width = 0.45mm
; top infill extrusion width = 0.40mm
; first layer extrusion width = 0.42mm

; external perimeters extrusion width = 0.45mm
; perimeters extrusion width = 0.45mm
; infill extrusion width = 0.45mm
; solid infill extrusion width = 0.45mm
; top infill extrusion width = 0.40mm
; first layer extrusion width = 0.42mm

; external perimeters extrusion width = 0.45mm
; perimeters extrusion width = 0.45mm
; infill extrusion width = 0.45mm
; solid infill extrusion width = 0.45mm
; top infill extrusion width = 0.40mm
; first layer extrusion width = 0.42mm

; external perimeters extrusion width = 0.45mm
; perimeters extrusion width = 0.45mm
; infill extrusion width = 0.45mm
; solid infill extrusion width = 0.45mm
; top infill extrusion width = 0.40mm
; first layer extrusion width = 0.42mm

M73 P0 R76
M73 Q0 S79
M201 X1000 Y1000 Z200 E5000 ; sets maximum accelerations, mm/sec^2
M203 X200 Y200 Z12 E120 ; sets maximum feedrates, mm / sec
M204 S1250 T1250 ; sets acceleration (S) and retract acceleration (R), mm/sec^2
M205 X8.00 Y8.00 Z0.40 E4.50 ; sets the jerk limits, mm/sec
M205 S0 T0 ; sets the minimum extruding and travel feed rate, mm/sec
;TYPE:Custom
M862.3 P "MK3S" ; printer model check
M862.1 P0.4 ; nozzle diameter check
M115 U3.13.0 ; tell printer latest fw version
G90 ; use absolute coordinates
M83 ; extruder relative mode
M104 S215 ; set extruder temp
M140 S60 ; set bed temp
M190 S60 ; wait for bed temp
M109 S215 ; wait for extruder temp
G28 W ; home all without mesh bed level
G80 ; mesh bed leveling

G1 Z0.2 F720
G1 Y-3 F1000 ; go outside print area
G92 E0
G1 X60 E9 F1000 ; intro line
G1 X100 E12.5 F1000 ; intro line

G92 E0
M221 S95

; Don't change E values below. Excessive value can damage the printer.

M907 E538 ; set extruder motor current
G21 ; set units to millimeters
G90 ; use absolute coordinates
M83 ; use relative distances for extrusion
M900 K0.05 ; Filament gcode LA 1.5
M900 K30 ; Filament gcode LA 1.0
M107
;LAYER_CHANGE
;Z:0.2
;HEIGHT:0.2
;BEFORE_LAYER_CHANGE
G92 E0.0
;0.2


G1 E-.8 F2100
G1 Z.4 F720
;AFTER_LAYER_CHANGE
;0.2
G1 X27.456 Y66.595 F10800
G1 Z.2 F720
G1 E.8 F2100
M204 S800
;TYPE:Skirt/Brim
;WIDTH:0.42
G1 F1200
G1 X132.832 Y37.742 E3.42561
G1 X137.668 Y37.339 E.15215
G1 X138.375 Y37.393 E.02223
G1 X185.051 Y48.109 E1.50157
G1 X185.696 Y48.361 E.02171
G1 X228.843 Y72.963 E1.55731
G1 X229.784 Y73.951 E.04278
G1 X229.986 Y75.544 E.05035
G1 X228.183 Y83.639 E.26003
G1 X214.412 Y134.797 E1.66112
G1 X212.041 Y139.54 E.16626
G1 X211.096 Y140.525 E.0428
G1 X210.436 Y140.778 E.02216
G1 X207.433 Y141.434 E.09638
G1 X35.356 Y168.606 E5.4622
G1 X34.045 Y168.441 E.04143
G1 X28.764 Y166.166 E.18029
G1 X27.718 Y165.29 E.04278
G1 X27.35 Y164.309 E.03285
G1 X26.878 Y160.896 E.10803
G1 X17.908 Y92.835 E2.15246
G1 X17.666 Y89.728 E.09771
G1 X17.73 Y86.731 E.09399
G1 X18.096 Y83.695 E.09588
G1 X18.76 Y80.711 E.09585
G1 X19.717 Y77.807 E.09587
G1 X20.9 Y75.125 E.09191
G1 X22.4 Y72.461 E.09586
G1 X24.111 Y70.017 E.09354
G1 X26.24 Y67.387 E.10609
G1 X27.406 Y66.628 E.04362
M204 S1000
;WIPE_START
G1 F8640
G1 X30.748 Y65.712 E-.8
;WIPE_END
G1 Z.6 F720
G1 X34.576 Y135.101 F10800
G1 Z.2 F720
G1 E.8 F2100
M204 S800
G1 F1200
G1 X37.49 Y135.412 E.09189
G1 X40.12 Y135.637 E.08276
G1 X42.755 Y135.809 E.08279
G1 X45.359 Y135.924 E.08173
G1 X48.034 Y135.988 E.0839
G1 X50.674 Y135.996 E.08278
G1 X53.314 Y135.95 E.08279
M73 Q0 S78
G1 X55.953 Y135.849 E.0828
G1 X58.589 Y135.694 E.08279
G1 X61.218 Y135.485 E.08269
G1 X63.709 Y135.232 E.07851
G1 X64.32 Y135.122 E.01947
G1 X65.84 Y134.787 E.0488
G1 X69.055 Y134.334 E.1018
G1 X71.434 Y133.946 E.07558
G1 X72.903 Y133.946 E.04606
G1 X73.671 Y134.118 E.02468
G1 X74.415 Y134.429 E.02528
G1 X75.686 Y135.406 E.05026
G1 X76.54 Y136.711 E.0489
G1 X76.947 Y138.182 E.04786
G1 X76.895 Y139.697 E.04753
G1 X76.351 Y141.132 E.04812
G1 X75.921 Y141.753 E.02368
G1 X74.875 Y142.722 E.04471
G1 X73.515 Y143.355 E.04703
G1 X71.744 Y143.833 E.05752
G1 X69.818 Y144.402 E.06297
G1 X68.171 Y144.931 E.05424
G1 X66.42 Y145.356 E.0565
G1 X65.905 Y145.521 E.01696
G1 X64.102 Y146.21 E.06052
G1 X62.252 Y146.973 E.06275
G1 X60.422 Y147.784 E.06276
G1 X58.613 Y148.643 E.06279
G1 X57.198 Y149.36 E.04974
G1 X55.056 Y150.504 E.07614
G1 X53.328 Y151.496 E.06247
G1 X51.618 Y152.537 E.06277
G1 X49.936 Y153.622 E.06276
G1 X48.282 Y154.751 E.06279
G1 X46.658 Y155.922 E.06278
G1 X45.064 Y157.134 E.06279
G1 X43.503 Y158.388 E.06278
G1 X42.292 Y159.413 E.04975
G1 X40.48 Y161.016 E.07586
G1 X39.271 Y162.16 E.05219
G1 X39.006 Y162.542 E.01458
G1 X38.477 Y163.196 E.02637
G1 X37.684 Y163.964 E.03461
G1 X36.404 Y164.818 E.04825
G1 X35.213 Y165.204 E.03926
G1 X34.253 Y165.275 E.03018
G1 X33.249 Y165.143 E.03175
G1 X31.424 Y164.29 E.06316
G1 X30.817 Y163.73 E.02589
G1 X30.292 Y163.061 E.02666
G1 X29.722 Y161.78 E.04396
G1 X29.505 Y160.34 E.04566
G1 X29.501 Y159.309 E.03233
G1 X29.656 Y158.35 E.03046
G1 X29.693 Y157.928 E.01328
G1 X29.697 Y139.439 E.57971
G1 X30.477 Y137.256 E.07268
M73 P0 R75
G1 X31.107 Y136.52 E.03038
G1 X31.835 Y135.913 E.02972
G1 X33.141 Y135.312 E.04508
G1 X34.517 Y135.11 E.04361
M204 S1000
G1 X34.561 Y135.479 F10800
M204 S800
G1 F1200
G1 X37.454 Y135.787 E.09122
G1 X40.092 Y136.013 E.08302
G1 X42.735 Y136.185 E.08304
G1 X45.346 Y136.301 E.08195
G1 X48.029 Y136.365 E.08415
G1 X50.676 Y136.373 E.083
G1 X53.324 Y136.327 E.08304
G1 X55.971 Y136.226 E.08306
G1 X58.615 Y136.07 E.08304
G1 X61.252 Y135.861 E.08294
G1 X63.761 Y135.605 E.07908
G1 X64.394 Y135.492 E.02016
G1 X65.899 Y135.16 E.04832
G1 X69.111 Y134.707 E.10171
G1 X71.48 Y134.32 E.07526
G1 X72.841 Y134.319 E.04267
G1 X73.572 Y134.482 E.02348
G1 X74.245 Y134.766 E.0229
G1 X75.429 Y135.684 E.04697
G1 X76.207 Y136.89 E.045
G1 X76.576 Y138.251 E.04421
G1 X76.52 Y139.65 E.0439
G1 X76.008 Y140.975 E.04454
G1 X75.65 Y141.49 E.01967
G1 X74.641 Y142.425 E.04313
G1 X73.402 Y142.995 E.04276
G1 X71.641 Y143.47 E.05719
G1 X69.707 Y144.042 E.06324
G1 X68.062 Y144.57 E.05417
G1 X66.318 Y144.993 E.05627
M73 P1 R75
G1 X65.78 Y145.165 E.01771
G1 X63.963 Y145.859 E.06098
G1 X62.104 Y146.626 E.06305
G1 X60.264 Y147.442 E.06311
G1 X58.447 Y148.304 E.06306
G1 X57.024 Y149.026 E.05003
G1 X54.873 Y150.174 E.07645
G1 X53.137 Y151.171 E.06277
G1 X51.418 Y152.217 E.06309
G1 X49.727 Y153.308 E.0631
G1 X48.065 Y154.442 E.06309
G1 X46.433 Y155.619 E.06309
G1 X44.832 Y156.837 E.06307
G1 X43.263 Y158.097 E.06309
M73 Q1 S78
G1 X42.045 Y159.128 E.05003
G1 X40.225 Y160.737 E.07617
G1 X38.983 Y161.913 E.05363
G1 X38.708 Y162.311 E.01517
G1 X38.191 Y162.95 E.02577
G1 X37.434 Y163.682 E.03302
G1 X36.261 Y164.468 E.04427
G1 X35.16 Y164.83 E.03634
G1 X34.279 Y164.898 E.02771
G1 X33.379 Y164.788 E.02843
G1 X31.658 Y163.993 E.05944
G1 X31.084 Y163.463 E.0245
G1 X30.604 Y162.848 E.02446
G1 X30.078 Y161.652 E.04097
G1 X29.882 Y160.325 E.04206
G1 X29.878 Y159.324 E.03139
G1 X30.03 Y158.397 E.02945
G1 X30.07 Y157.945 E.01423
G1 X30.074 Y139.472 E.57921
G1 X30.814 Y137.434 E.06798
G1 X31.381 Y136.779 E.02716
G1 X32.057 Y136.219 E.02752
G1 X33.224 Y135.68 E.0403
G1 X34.502 Y135.488 E.04052
M204 S1000
G1 X34.546 Y135.857 F10800
M204 S800
G1 F1200
G1 X37.418 Y136.163 E.09056
G1 X40.064 Y136.389 E.08327
G1 X42.714 Y136.562 E.08327
G1 X45.333 Y136.678 E.0822
G1 X48.024 Y136.742 E.0844
G1 X50.679 Y136.75 E.08325
G1 X53.335 Y136.704 E.08329
G1 X55.99 Y136.602 E.08331
G1 X58.641 Y136.446 E.08326
G1 X61.286 Y136.236 E.08319
G1 X63.814 Y135.979 E.07967
G1 X64.468 Y135.861 E.02084
G1 X65.959 Y135.532 E.04787
G1 X69.168 Y135.08 E.10161
G1 X71.526 Y134.695 E.07491
G1 X72.819 Y134.696 E.04054
G1 X73.471 Y134.846 E.02098
G1 X74.074 Y135.103 E.02055
G1 X75.171 Y135.96 E.04365
G1 X75.872 Y137.066 E.04106
G1 X76.204 Y138.319 E.04064
G1 X76.145 Y139.6 E.04021
G1 X75.666 Y140.815 E.04095
G1 X75.379 Y141.227 E.01574
G1 X74.407 Y142.127 E.04153
G1 X73.29 Y142.635 E.03847
G1 X71.538 Y143.107 E.05689
G1 X69.596 Y143.682 E.0635
G1 X67.954 Y144.209 E.05407
G1 X66.216 Y144.63 E.05607
G1 X65.655 Y144.809 E.01846
G1 X63.824 Y145.509 E.06146
G1 X61.956 Y146.279 E.06335
G1 X60.107 Y147.099 E.06342
G1 X58.281 Y147.966 E.06338
G1 X56.85 Y148.691 E.0503
G1 X54.691 Y149.844 E.07674
G1 X52.945 Y150.846 E.06312
G1 X51.218 Y151.898 E.0634
G1 X49.519 Y152.994 E.06339
G1 X47.849 Y154.133 E.06338
G1 X46.209 Y155.316 E.0634
G1 X44.6 Y156.54 E.06339
G1 X43.023 Y157.806 E.06341
G1 X41.798 Y158.843 E.05032
G1 X39.971 Y160.459 E.07648
G1 X38.695 Y161.666 E.05507
G1 X38.411 Y162.079 E.01572
G1 X37.905 Y162.704 E.02521
G1 X37.184 Y163.399 E.0314
G1 X36.117 Y164.119 E.04036
G1 X35.107 Y164.456 E.03338
G1 X34.269 Y164.521 E.02635
G1 X33.456 Y164.418 E.02569
G1 X31.891 Y163.695 E.05405
G1 X31.371 Y163.219 E.0221
G1 X30.916 Y162.636 E.02319
G1 X30.434 Y161.525 E.03797
G1 X30.259 Y160.31 E.03849
G1 X30.253 Y159.369 E.0295
G1 X30.404 Y158.444 E.02939
G1 X30.447 Y157.962 E.01517
G1 X30.451 Y139.505 E.57871
G1 X31.122 Y137.654 E.06173
G1 X31.634 Y137.059 E.02461
G1 X32.279 Y136.525 E.02626
G1 X33.308 Y136.049 E.03555
G1 X34.486 Y135.866 E.03738
M204 S1000
G1 X34.531 Y136.234 F10800
M204 S800
G1 F1200
G1 X37.382 Y136.538 E.0899
G1 X40.035 Y136.765 E.08349
G1 X42.694 Y136.938 E.08355
G1 X45.32 Y137.055 E.08242
G1 X48.019 Y137.119 E.08465
G1 X50.682 Y137.127 E.0835
G1 X53.345 Y137.081 E.08351
G1 X56.008 Y136.979 E.08356
G1 X58.667 Y136.823 E.08351
G1 X61.32 Y136.612 E.08345
G1 X63.866 Y136.353 E.08024
G1 X64.542 Y136.231 E.02154
G1 X66.019 Y135.904 E.04743
G1 X69.225 Y135.453 E.10151
G1 X71.572 Y135.07 E.07456
G1 X72.757 Y135.068 E.03715
G1 X73.339 Y135.199 E.0187
G1 X73.903 Y135.44 E.01923
G1 X74.911 Y136.235 E.04025
G1 X75.536 Y137.24 E.03711
G1 X75.831 Y138.384 E.03704
G1 X75.77 Y139.548 E.03655
G1 X75.324 Y140.654 E.03739
G1 X75.108 Y140.964 E.01185
G1 X74.174 Y141.829 E.03991
G1 X73.178 Y142.274 E.0342
G1 X71.436 Y142.744 E.05657
G1 X69.485 Y143.321 E.06379
G1 X67.845 Y143.848 E.05401
G1 X66.115 Y144.266 E.0558
G1 X65.53 Y144.453 E.01926
G1 X63.684 Y145.158 E.06196
G1 X61.807 Y145.933 E.06367
G1 X59.95 Y146.756 E.06369
G1 X58.115 Y147.627 E.06369
G1 X56.675 Y148.357 E.05062
G1 X54.508 Y149.515 E.07704
G1 X52.753 Y150.522 E.06344
G1 X51.017 Y151.578 E.06371
G1 X49.31 Y152.679 E.06369
G1 X47.632 Y153.824 E.06369
G1 X45.984 Y155.013 E.06372
G1 X44.368 Y156.243 E.06368
G1 X42.783 Y157.515 E.06372
G1 X41.552 Y158.558 E.05059
G1 X39.716 Y160.181 E.07683
G1 X38.407 Y161.42 E.05651
G1 X38.113 Y161.848 E.01628
G1 X37.619 Y162.457 E.02459
G1 X36.934 Y163.116 E.0298
G1 X35.971 Y163.77 E.0365
G1 X35.052 Y164.082 E.03043
G1 X34.297 Y164.144 E.02375
G1 X33.532 Y164.047 E.02418
G1 X32.124 Y163.398 E.04861
G1 X31.638 Y162.952 E.02068
G1 X31.229 Y162.424 E.02094
G1 X30.791 Y161.401 E.03489
G1 X30.636 Y160.295 E.03502
G1 X30.63 Y159.383 E.0286
G1 X30.779 Y158.492 E.02832
G1 X30.824 Y157.979 E.01615
G1 X30.828 Y139.538 E.5782
G1 X31.431 Y137.873 E.05552
G1 X31.888 Y137.339 E.02204
G1 X32.501 Y136.831 E.02496
G1 X33.394 Y136.417 E.03086
G1 X34.472 Y136.244 E.03423
M204 S1000
G1 X34.517 Y136.612 F10800
M204 S800
G1 F1200
G1 X37.345 Y136.913 E.08917
G1 X40.007 Y137.141 E.08377
G1 X42.673 Y137.315 E.08377
G1 X45.307 Y137.432 E.08267
G1 X48.014 Y137.496 E.0849
G1 X50.685 Y137.504 E.08375
G1 X53.356 Y137.458 E.08376
G1 X56.026 Y137.356 E.08378
G1 X58.693 Y137.199 E.08377
G1 X61.354 Y136.987 E.0837
G1 X63.919 Y136.726 E.08084
G1 X64.617 Y136.601 E.02223
G1 X66.079 Y136.277 E.04695
G1 X69.281 Y135.825 E.10139
G1 X71.617 Y135.444 E.07421
G1 X72.735 Y135.445 E.03505
G1 X73.206 Y135.553 E.01515
G1 X73.731 Y135.776 E.01788
G1 X74.649 Y136.509 E.03683
G1 X75.199 Y137.411 E.03312
G1 X75.458 Y138.446 E.03345
G1 X75.396 Y139.493 E.03289
G1 X74.984 Y140.49 E.03382
G1 X74.837 Y140.702 E.00809
G1 X73.942 Y141.531 E.03825
G1 X73.067 Y141.914 E.02995
G1 X71.333 Y142.381 E.05631
G1 X69.374 Y142.961 E.06406
G1 X67.737 Y143.486 E.0539
G1 X66.013 Y143.903 E.05561
G1 X65.406 Y144.097 E.01998
G1 X63.545 Y144.808 E.06246
G1 X61.659 Y145.586 E.06397
G1 X59.792 Y146.413 E.06402
G1 X57.948 Y147.289 E.06401
G1 X56.501 Y148.022 E.05086
G1 X54.325 Y149.185 E.07736
G1 X52.561 Y150.197 E.06376
G1 X50.817 Y151.259 E.06402
G1 X49.102 Y152.365 E.06398
G1 X47.415 Y153.516 E.06403
G1 X45.76 Y154.71 E.06399
G1 X44.135 Y155.946 E.06401
G1 X42.543 Y157.224 E.06401
G1 X41.305 Y158.272 E.05086
G1 X39.462 Y159.903 E.07716
G1 X38.119 Y161.174 E.05798
G1 X37.815 Y161.616 E.01682
G1 X37.334 Y162.211 E.02399
G1 X36.684 Y162.833 E.02821
G1 X35.823 Y163.422 E.03271
G1 X34.997 Y163.708 E.02741
G1 X34.286 Y163.767 E.02237
G1 X33.61 Y163.677 E.02138
G1 X32.357 Y163.1 E.04325
G1 X31.905 Y162.685 E.01924
G1 X31.543 Y162.213 E.01865
G1 X31.16 Y161.323 E.03038
G1 X31.013 Y160.28 E.03303
G1 X31.007 Y159.397 E.02769
G1 X31.153 Y158.541 E.02723
G1 X31.202 Y157.995 E.01719
G1 X31.205 Y139.571 E.57767
G1 X31.74 Y138.091 E.04934
G1 X32.141 Y137.619 E.01942
G1 X32.723 Y137.137 E.02369
G1 X33.482 Y136.784 E.02625
G1 X34.458 Y136.622 E.03102
M204 S1000
G1 X34.504 Y136.99 F10800
M204 S800
G1 F1200
G1 X37.309 Y137.289 E.08845
G1 X39.979 Y137.517 E.08402
G1 X42.652 Y137.691 E.08399
G1 X45.294 Y137.809 E.08292
G1 X48.008 Y137.873 E.08512
G1 X50.687 Y137.882 E.084
G1 X53.366 Y137.835 E.08401
G1 X56.044 Y137.732 E.08403
G1 X58.719 Y137.575 E.08402
G1 X61.388 Y137.363 E.08395
G1 X63.971 Y137.1 E.08141
G1 X64.691 Y136.971 E.02293
G1 X66.139 Y136.649 E.04651
G1 X69.338 Y136.198 E.10129
G1 X71.663 Y135.819 E.07386
G1 X72.675 Y135.818 E.03173
G1 X73.075 Y135.907 E.01285
G1 X73.559 Y136.113 E.01649
G1 X74.385 Y136.78 E.03329
G1 X74.86 Y137.578 E.02912
G1 X75.085 Y138.506 E.02994
G1 X75.022 Y139.434 E.02916
G1 X74.645 Y140.325 E.03033
G1 X74.564 Y140.441 E.00444
G1 X73.759 Y141.199 E.03467
G1 X72.955 Y141.553 E.02754
G1 X71.231 Y142.018 E.05599
G1 X69.263 Y142.601 E.06436
G1 X67.628 Y143.125 E.05383
G1 X65.911 Y143.54 E.05539
G1 X65.281 Y143.741 E.02073
G1 X63.406 Y144.457 E.06293
G1 X61.511 Y145.239 E.06428
G1 X59.635 Y146.071 E.06435
G1 X57.782 Y146.95 E.0643
G1 X56.327 Y147.688 E.05115
G1 X54.143 Y148.855 E.07764
G1 X52.369 Y149.873 E.06413
G1 X50.617 Y150.939 E.0643
G1 X48.893 Y152.051 E.06432
G1 X47.199 Y153.207 E.0643
G1 X45.535 Y154.407 E.06433
G1 X43.903 Y155.649 E.0643
G1 X42.304 Y156.933 E.0643
G1 X41.058 Y157.987 E.05117
G1 X39.207 Y159.624 E.07748
G1 X37.83 Y160.928 E.05946
G1 X37.517 Y161.386 E.01739
G1 X37.063 Y161.948 E.02265
G1 X36.456 Y162.533 E.02643
G1 X35.673 Y163.076 E.02988
G1 X34.939 Y163.335 E.0244
G1 X34.314 Y163.39 E.01967
G1 X33.687 Y163.307 E.01983
G1 X32.589 Y162.801 E.03791
G1 X32.194 Y162.442 E.01674
G1 X31.857 Y162.003 E.01735
G1 X31.518 Y161.2 E.02733
G1 X31.39 Y160.266 E.02956
G1 X31.385 Y159.412 E.02678
G1 X31.527 Y158.59 E.02615
G1 X31.579 Y158.012 E.0182
G1 X31.583 Y139.603 E.5772
G1 X32.05 Y138.308 E.04316
G1 X32.395 Y137.898 E.0168
G1 X32.945 Y137.442 E.0224
G1 X33.571 Y137.151 E.02164
G1 X34.445 Y137 E.02781
M204 S1000
