; generated by PrusaSlicer 2.6.0+MacOS-x64 on 2023-12-12 at 20:31:33 UTC


;
;
; 

; external perimeters extrusion width = 0.45mm
; perimeters extrusion width = 0.45mm
; infill extrusion width = 0.45mm
; solid infill extrusion width = 0.45mm
; top infill extrusion width = 0.40mm
; first layer extrusion width = 0.42mm

M73 P0 R3
M73 Q0 S3
M201 X1000 Y1000 Z200 E5000 ; sets maximum accelerations, mm/sec^2
M203 X200 Y200 Z12 E120 ; sets maximum feedrates, mm / sec
M204 S1250 T1250 ; sets acceleration (S) and retract acceleration (R), mm/sec^2
M205 X8.00 Y8.00 Z0.40 E4.50 ; sets the jerk limits, mm/sec
M205 S0 T0 ; sets the minimum extruding and travel feed rate, mm/sec
;TYPE:Custom
M862.3 P "MK3S" ; printer model check
M862.1 P0.4 ; nozzle diameter check
M115 U3.13.0 ; tell printer latest fw version
G90 ; use absolute coordinates
M83 ; extruder relative mode
M104 S215 ; set extruder temp
M140 S60 ; set bed temp
M190 S60 ; wait for bed temp
M109 S215 ; wait for extruder temp
G28 W ; home all without mesh bed level
G80 ; mesh bed leveling

G1 Z0.2 F720
G1 Y-3 F1000 ; go outside print area
G92 E0
G1 X60 E9 F1000 ; intro line
G1 X100 E12.5 F1000 ; intro line

G92 E0
M221 S95

; Don't change E values below. Excessive value can damage the printer.

M907 E538 ; set extruder motor current
G21 ; set units to millimeters
G90 ; use absolute coordinates
M83 ; use relative distances for extrusion
M900 K0.05 ; Filament gcode LA 1.5
M900 K30 ; Filament gcode LA 1.0
M107
;LAYER_CHANGE
;Z:0.2
;HEIGHT:0.2
;BEFORE_LAYER_CHANGE
G92 E0.0
;0.2


M73 P1 R3
M73 Q1 S3
G1 E-.8 F2100
M73 P2 R3
M73 Q2 S3
G1 Z.4 F720
;AFTER_LAYER_CHANGE
;0.2
G1 X117.237 Y98.591 F10800
G1 Z.2 F720
M73 P3 R3
M73 Q3 S3
G1 E.8 F2100
M204 S800
;TYPE:Skirt/Brim
;WIDTH:0.42
G1 F1200
G1 X117.894 Y97.872 E.03054
G1 X118.844 Y97.037 E.03966
G1 X119.734 Y96.423 E.0339
G1 X121.385 Y95.606 E.05776
G1 X122.3 Y95.304 E.03021
G1 X123.348 Y95.073 E.03365
G1 X125.178 Y94.936 E.05754
G1 X126.147 Y95.001 E.03045
G1 X127.195 Y95.179 E.03333
G1 X128.924 Y95.731 E.05691
G1 X129.803 Y96.154 E.03059
G1 X130.738 Y96.732 E.03447
G1 X132.106 Y97.872 E.05583
G1 X132.762 Y98.591 E.03052
G1 X133.428 Y99.498 E.03528
G1 X134.266 Y101.067 E.05577
G1 X134.6 Y101.97 E.03019
G1 X134.873 Y103.04 E.03462
G1 X135.065 Y105.046 E.06318
G1 X135.005 Y106.112 E.03348
G1 X134.852 Y107.077 E.03063
G1 X134.313 Y108.822 E.05726
G1 X133.854 Y109.792 E.03365
G1 X133.356 Y110.617 E.03021
G1 X132.191 Y112.046 E.05781
M73 Q4 S3
G1 X131.395 Y112.776 E.03386
G1 X130.636 Y113.343 E.02971
G1 X129.018 Y114.232 E.05788
G1 X128.007 Y114.609 E.03383
G1 X126.776 Y114.911 E.03974
M73 P4 R3
G1 X125.82 Y115.036 E.03023
G1 X124.716 Y115.064 E.03463
G1 X122.714 Y114.805 E.06329
G1 X121.691 Y114.509 E.03339
G1 X120.788 Y114.146 E.03051
G1 X119.204 Y113.231 E.05736
G1 X118.36 Y112.568 E.03365
G1 X117.667 Y111.899 E.0302
G1 X116.533 Y110.445 E.05782
G1 X115.997 Y109.507 E.03387
G1 X115.614 Y108.641 E.02969
G1 X115.107 Y106.865 E.05791
G1 X114.965 Y105.796 E.03381
G1 X114.934 Y104.849 E.02971
G1 X115.127 Y103.04 E.05704
G1 X115.4 Y101.97 E.03462
G1 X115.735 Y101.066 E.03023
G1 X116.573 Y99.497 E.05577
G1 X117.202 Y98.639 E.03336
M204 S1000
G1 X117.506 Y98.862 F10800
M204 S800
G1 F1200
G1 X118.156 Y98.143 E.03039
G1 X119.07 Y97.339 E.03817
G1 X119.94 Y96.739 E.03314
G1 X121.527 Y95.956 E.05549
G1 X123.42 Y95.443 E.06149
G1 X125.178 Y95.313 E.05527
G1 X127.123 Y95.549 E.06143
G1 X128.782 Y96.08 E.05462
G1 X129.617 Y96.482 E.02906
M73 Q5 S3
G1 X130.531 Y97.047 E.03369
G1 X131.844 Y98.143 E.05363
G1 X132.468 Y98.826 E.02901
G1 X133.118 Y99.713 E.03448
G1 X133.921 Y101.22 E.05354
M73 P5 R3
G1 X134.238 Y102.077 E.02865
G1 X134.506 Y103.124 E.03389
G1 X134.689 Y105.034 E.06016
G1 X134.484 Y106.993 E.06176
G1 X133.968 Y108.669 E.05498
G1 X133.046 Y110.402 E.06155
G1 X131.929 Y111.774 E.05547
G1 X130.43 Y113.027 E.06126
G1 X128.878 Y113.882 E.05556
G1 X127.889 Y114.251 E.0331
G1 X126.703 Y114.541 E.03828
G1 X125.796 Y114.66 E.02868
G1 X124.716 Y114.687 E.03387
G1 X122.81 Y114.44 E.06026
G1 X120.952 Y113.807 E.06154
G1 X119.429 Y112.929 E.05512
G1 X117.945 Y111.645 E.06153
G1 X116.856 Y110.251 E.05546
G1 X115.968 Y108.51 E.06128
G1 X115.48 Y106.806 E.05558
G1 X115.311 Y104.861 E.06121
G1 X115.494 Y103.124 E.05476
G1 X115.762 Y102.077 E.03389
G1 X116.079 Y101.219 E.02868
M73 Q6 S3
G1 X116.883 Y99.712 E.05355
G1 X117.47 Y98.91 E.03116
M204 S1000
G1 X117.774 Y99.133 F10800
M204 S800
G1 F1200
G1 X118.417 Y98.414 E.03024
G1 X119.296 Y97.641 E.0367
G1 X120.146 Y97.055 E.03237
M73 P6 R3
G1 X121.668 Y96.305 E.0532
G1 X123.492 Y95.813 E.05923
G1 X125.178 Y95.69 E.053
G1 X127.051 Y95.919 E.05916
G1 X128.641 Y96.43 E.05236
G1 X129.432 Y96.811 E.02753
G1 X130.325 Y97.363 E.03292
G1 X131.582 Y98.414 E.05137
G1 X132.173 Y99.061 E.02748
G1 X132.808 Y99.927 E.03367
G1 X133.576 Y101.373 E.05134
G1 X134.138 Y103.208 E.06017
G1 X134.312 Y105.022 E.05714
G1 X134.117 Y106.909 E.05948
G1 X133.623 Y108.516 E.05271
G1 X132.737 Y110.187 E.0593
G1 X131.668 Y111.503 E.05316
G1 X130.224 Y112.711 E.05903
G1 X128.737 Y113.532 E.05326
G1 X127.771 Y113.893 E.03233
G1 X126.631 Y114.171 E.03679
G1 X124.716 Y114.31 E.0602
G1 X122.906 Y114.075 E.05723
G1 X121.115 Y113.467 E.0593
G1 X119.655 Y112.627 E.05281
M73 Q7 S3
G1 X118.224 Y111.392 E.05927
G1 X117.178 Y110.056 E.0532
G1 X116.321 Y108.379 E.05905
M73 P7 R3
G1 X115.852 Y106.747 E.05324
G1 X115.688 Y104.873 E.05898
G1 X115.862 Y103.208 E.05249
G1 X116.424 Y101.372 E.0602
G1 X117.193 Y99.926 E.05135
G1 X117.739 Y99.181 E.02896
M204 S1000
;WIPE_START
G1 F8640
G1 X118.417 Y98.414 E-.23638
G1 X119.296 Y97.641 E-.27028
G1 X120.146 Y97.055 E-.23839
G1 X120.359 Y96.95 E-.05495
;WIPE_END
G1 Z.6 F720
G1 X119.716 Y100.974 F10800
G1 Z.2 F720
G1 E.8 F2100
M204 S800
G1 F1200
G1 X120.508 Y100.1 E.03698
G1 X121.027 Y99.672 E.02109
G1 X121.569 Y99.306 E.02051
G1 X122.683 Y98.769 E.03878
G1 X123.309 Y98.573 E.02057
G1 X123.965 Y98.434 E.02103
G1 X125.233 Y98.356 E.03983
G1 X125.969 Y98.425 E.02318
G1 X126.709 Y98.578 E.02369
G1 X127.404 Y98.804 E.02291
G1 X128.078 Y99.107 E.02317
G1 X129.133 Y99.793 E.03946
G1 X129.614 Y100.217 E.0201
G1 X130.068 Y100.696 E.02069
G1 X130.787 Y101.727 E.03941
G1 X131.081 Y102.316 E.02064
G1 X131.313 Y102.914 E.02011
G1 X131.594 Y104.144 E.03956
G1 X131.644 Y104.784 E.02013
G1 X131.634 Y105.444 E.0207
G1 X131.434 Y106.685 E.03941
G1 X131.238 Y107.298 E.02018
M73 Q8 S3
G1 X130.984 Y107.9 E.02049
G1 X130.338 Y108.967 E.03911
G1 X129.925 Y109.468 E.02036
G1 X129.454 Y109.939 E.02088
G1 X128.481 Y110.667 E.0381
G1 X127.9 Y110.984 E.02075
G1 X127.274 Y111.25 E.02133
G1 X126.085 Y111.562 E.03854
M73 P8 R3
G1 X125.422 Y111.637 E.02092
G1 X124.772 Y111.648 E.02038
G1 X123.521 Y111.484 E.03956
G1 X122.833 Y111.286 E.02245
G1 X122.174 Y111.02 E.02228
G1 X121.498 Y110.652 E.02413
G1 X120.873 Y110.215 E.02391
G1 X120.03 Y109.418 E.03637
G1 X119.585 Y108.859 E.0224
G1 X119.204 Y108.26 E.02226
G1 X118.712 Y107.164 E.03767
G1 X118.523 Y106.502 E.02159
G1 X118.402 Y105.823 E.02162
G1 X118.36 Y104.669 E.03621
G1 X118.429 Y103.99 E.0214
G1 X118.57 Y103.308 E.02184
G1 X118.997 Y102.142 E.03893
G1 X119.314 Y101.559 E.02081
G1 X119.676 Y101.018 E.02041
M204 S1000
G1 X119.979 Y101.241 F10800
M204 S800
G1 F1200
G1 X120.759 Y100.382 E.03638
G1 X121.246 Y99.98 E.0198
G1 X121.769 Y99.626 E.0198
G1 X122.808 Y99.125 E.03617
G1 X123.413 Y98.936 E.01987
G1 X124.029 Y98.806 E.01974
G1 X125.213 Y98.733 E.03719
G1 X125.904 Y98.797 E.02176
G1 X126.602 Y98.94 E.02234
G1 X127.277 Y99.159 E.02225
G1 X127.909 Y99.445 E.02175
G1 X128.894 Y100.085 E.03683
G1 X129.359 Y100.494 E.01942
G1 X129.784 Y100.944 E.01941
G1 X130.456 Y101.908 E.03684
G1 X130.733 Y102.461 E.01939
G1 X130.957 Y103.038 E.01941
G1 X131.219 Y104.187 E.03695
G1 X131.267 Y104.804 E.0194
G1 X131.258 Y105.424 E.01944
G1 X131.07 Y106.584 E.03685
G1 X130.882 Y107.176 E.01948
G1 X130.643 Y107.74 E.01921
G1 X130.039 Y108.738 E.03658
G1 X129.64 Y109.221 E.01964
G1 X129.197 Y109.662 E.0196
G1 X128.288 Y110.343 E.03561
G1 X127.728 Y110.649 E.02001
M73 Q9 S3
G1 X127.14 Y110.898 E.02002
G1 X126.029 Y111.189 E.03601
G1 X125.406 Y111.26 E.01966
G1 X124.779 Y111.271 E.01966
G1 X123.611 Y111.118 E.03693
G1 X122.964 Y110.933 E.0211
G1 X122.344 Y110.683 E.02096
M73 P9 R3
G1 X121.705 Y110.337 E.02278
G1 X121.101 Y109.914 E.02312
G1 X120.316 Y109.173 E.03385
G1 X119.898 Y108.648 E.02104
G1 X119.529 Y108.069 E.02153
G1 X119.071 Y107.046 E.03514
G1 X118.892 Y106.426 E.02023
G1 X118.776 Y105.77 E.02089
G1 X118.736 Y104.695 E.03373
G1 X118.803 Y104.039 E.02068
G1 X118.936 Y103.398 E.02053
G1 X119.336 Y102.309 E.03638
G1 X119.632 Y101.761 E.01953
G1 X119.946 Y101.291 E.01772
M204 S1000
G1 X120.259 Y101.501 F10800
M204 S800
G1 F1200
G1 X121.01 Y100.663 E.03528
G1 X121.464 Y100.287 E.01848
G1 X121.968 Y99.946 E.01908
G1 X122.935 Y99.481 E.03364
G1 X123.5 Y99.303 E.01857
G1 X124.094 Y99.178 E.01903
G1 X125.193 Y99.11 E.03452
G1 X125.859 Y99.172 E.02097
G1 X126.516 Y99.307 E.02103
G1 X127.149 Y99.514 E.02088
G1 X127.74 Y99.782 E.02035
G1 X128.655 Y100.378 E.03424
G1 X129.103 Y100.771 E.01869
G1 X129.5 Y101.193 E.01817
G1 X130.125 Y102.089 E.03425
G1 X130.384 Y102.606 E.01813
G1 X130.601 Y103.162 E.01871
G1 X130.844 Y104.23 E.03434
G1 X130.89 Y104.808 E.01818
G1 X130.881 Y105.405 E.01872
G1 X130.707 Y106.483 E.03424
G1 X130.531 Y107.037 E.01823
G1 X130.301 Y107.581 E.01852
G1 X129.739 Y108.509 E.03402
G1 X129.367 Y108.96 E.01833
G1 X128.94 Y109.386 E.01891
G1 X128.095 Y110.018 E.03309
G1 X127.556 Y110.313 E.01927
G1 X127.006 Y110.545 E.01872
G1 X125.973 Y110.816 E.03349
G1 X125.373 Y110.884 E.01893
G1 X124.787 Y110.893 E.01838
G1 X123.7 Y110.751 E.03437
G1 X123.096 Y110.579 E.01969
G1 X122.495 Y110.337 E.02031
G1 X121.895 Y110.011 E.02141
M73 Q10 S3
G1 X121.329 Y109.613 E.02169
G1 X120.603 Y108.927 E.03132
G1 X120.199 Y108.421 E.0203
G1 X119.855 Y107.878 E.02015
G1 X119.43 Y106.929 E.0326
G1 X119.258 Y106.331 E.01951
G1 X119.149 Y105.718 E.01952
G1 X119.114 Y104.695 E.03209
M73 P10 R3
G1 X119.177 Y104.088 E.01913
G1 X119.302 Y103.489 E.01919
G1 X119.674 Y102.477 E.03381
G1 X119.959 Y101.948 E.01884
G1 X120.226 Y101.551 E.015
M204 S1000
G1 X120.539 Y101.761 F10800
M204 S800
G1 F1200
G1 X121.261 Y100.945 E.03416
G1 X121.698 Y100.583 E.01779
G1 X122.168 Y100.267 E.01776
G1 X123.061 Y99.836 E.03109
G1 X123.604 Y99.665 E.01785
G1 X124.157 Y99.549 E.01772
G1 X125.173 Y99.486 E.03192
G1 X125.794 Y99.543 E.01955
G1 X126.41 Y99.669 E.01971
G1 X127.003 Y99.862 E.01955
G1 X127.571 Y100.12 E.01956
G1 X128.417 Y100.67 E.03164
G1 X128.835 Y101.036 E.01742
G1 X129.216 Y101.441 E.01743
G1 X129.794 Y102.271 E.03171
G1 X130.043 Y102.767 E.0174
G1 X130.244 Y103.285 E.01742
G1 X130.47 Y104.274 E.03181
G1 X130.514 Y104.828 E.01742
G1 X130.504 Y105.385 E.01747
G1 X130.343 Y106.383 E.0317
G1 X130.174 Y106.914 E.01747
G1 X129.959 Y107.421 E.01727
G1 X129.439 Y108.279 E.03146
G1 X129.082 Y108.713 E.01762
G1 X128.684 Y109.109 E.0176
G1 X127.902 Y109.694 E.03062
G1 X127.4 Y109.97 E.01796
G1 X126.872 Y110.192 E.01796
G1 X125.916 Y110.443 E.03099
G1 X125.358 Y110.507 E.01761
G1 X124.795 Y110.516 E.01765
G1 X123.79 Y110.385 E.03178
G1 X123.209 Y110.219 E.01895
G1 X122.647 Y109.992 E.019
G1 X122.085 Y109.686 E.02006
G1 X121.558 Y109.313 E.02024
G1 X120.872 Y108.663 E.02963
G1 X120.501 Y108.195 E.01873
G1 X120.181 Y107.689 E.01877
G1 X119.788 Y106.812 E.03013
G1 X119.627 Y106.256 E.01815
G1 X119.523 Y105.665 E.01882
G1 X119.49 Y104.721 E.02962
G1 X119.549 Y104.155 E.01784
G1 X119.669 Y103.579 E.01845
G1 X120.012 Y102.644 E.03123
G1 X120.278 Y102.151 E.01756
G1 X120.505 Y101.811 E.01282
M204 S1000
M73 Q11 S3
G1 X120.818 Y102.021 F10800
M204 S800
G1 F1200
G1 X120.896 Y101.906 E.00436
G1 X121.512 Y101.227 E.02875
G1 X121.916 Y100.891 E.01648
G1 X122.367 Y100.587 E.01705
G1 X123.188 Y100.192 E.02857
G1 X123.691 Y100.032 E.01655
G1 X124.221 Y99.921 E.01698
G1 X125.153 Y99.863 E.02928
G1 X125.749 Y99.918 E.01877
M73 P11 R3
G1 X126.323 Y100.036 E.01837
G1 X126.876 Y100.217 E.01824
G1 X127.402 Y100.457 E.01813
G1 X128.178 Y100.962 E.02903
G1 X128.579 Y101.314 E.01673
G1 X128.931 Y101.689 E.01613
G1 X129.463 Y102.453 E.02919
G1 X129.695 Y102.912 E.01613
G1 X129.887 Y103.408 E.01668
G1 X130.095 Y104.318 E.02927
G1 X130.136 Y104.831 E.01614
G1 X130.127 Y105.365 E.01675
G1 X129.979 Y106.282 E.02912
G1 X129.824 Y106.775 E.0162
G1 X129.617 Y107.261 E.01656
G1 X129.139 Y108.051 E.02895
G1 X128.809 Y108.453 E.01631
G1 X128.427 Y108.833 E.01689
G1 X127.709 Y109.37 E.02811
G1 X127.245 Y109.626 E.01662
G1 X126.738 Y109.839 E.01724
G1 X125.859 Y110.07 E.0285
G1 X125.342 Y110.13 E.01632
G1 X124.803 Y110.139 E.0169
G1 X123.88 Y110.018 E.02919
G1 X123.34 Y109.866 E.01759
G1 X122.818 Y109.656 E.01764
G1 X122.276 Y109.36 E.01936
G1 X121.787 Y109.013 E.0188
G1 X121.159 Y108.418 E.02712
G1 X120.814 Y107.985 E.01736
G1 X120.507 Y107.499 E.01802
G1 X120.147 Y106.694 E.02765
G1 X119.992 Y106.161 E.0174
G1 X119.897 Y105.614 E.01741
G1 X119.867 Y104.747 E.0272
G1 X119.923 Y104.204 E.01712
G1 X120.035 Y103.671 E.01708
G1 X120.351 Y102.811 E.02873
G1 X120.605 Y102.338 E.01683
G1 X120.785 Y102.071 E.0101
M204 S1000
G1 X121.097 Y102.282 F10800
M204 S800
G1 F1200
G1 X121.201 Y102.128 E.00583
G1 X121.763 Y101.508 E.02624
G1 X122.15 Y101.187 E.01577
G1 X122.566 Y100.908 E.01571
G1 X123.314 Y100.547 E.02604
G1 X123.795 Y100.395 E.01582
G1 X124.285 Y100.293 E.01569
G1 X125.134 Y100.24 E.02667
G1 X125.684 Y100.289 E.01731
G1 X126.217 Y100.398 E.01706
G1 X126.729 Y100.564 E.01688
G1 X127.232 Y100.794 E.01734
G1 X127.94 Y101.255 E.02649
G1 X128.31 Y101.579 E.01542
G1 X128.647 Y101.937 E.01542
G1 X129.133 Y102.634 E.02664
G1 X129.354 Y103.073 E.01541
G1 X129.531 Y103.531 E.0154
G1 X129.72 Y104.362 E.02672
G1 X129.76 Y104.852 E.01541
M73 Q12 S3
G1 X129.75 Y105.344 E.01543
G1 X129.615 Y106.182 E.02661
G1 X129.467 Y106.653 E.01548
G1 X129.276 Y107.1 E.01524
G1 X128.839 Y107.822 E.02646
G1 X128.524 Y108.206 E.01557
G1 X128.171 Y108.556 E.01559
G1 X127.515 Y109.046 E.02567
G1 X127.072 Y109.291 E.01587
M73 P12 R3
G1 X126.605 Y109.486 E.01587
G1 X125.802 Y109.697 E.02603
G1 X125.308 Y109.755 E.0156
G1 X124.811 Y109.762 E.01558
G1 X123.969 Y109.652 E.02662
G1 X123.452 Y109.506 E.01684
G1 X122.969 Y109.31 E.01634
G1 X122.467 Y109.035 E.01795
G1 X122.017 Y108.714 E.01733
G1 X121.446 Y108.173 E.02466
G1 X121.116 Y107.758 E.01662
G1 X120.833 Y107.309 E.01664
G1 X120.505 Y106.576 E.02518
G1 X120.362 Y106.085 E.01603
G1 X120.27 Y105.561 E.01668
G1 X120.243 Y104.772 E.02475
G1 X120.294 Y104.271 E.01579
G1 X120.401 Y103.762 E.01631
G1 X120.689 Y102.977 E.02622
G1 X120.924 Y102.54 E.01556
G1 X121.064 Y102.331 E.00789
M204 S1000
G1 X121.376 Y102.542 F10800
M204 S800
G1 F1200
G1 X121.506 Y102.351 E.00724
G1 X122.015 Y101.789 E.02377
G1 X122.368 Y101.494 E.01442
G1 X122.765 Y101.228 E.01498
G1 X123.442 Y100.902 E.02356
G1 X123.882 Y100.762 E.01448
G1 X124.348 Y100.665 E.01492
G1 X125.115 Y100.617 E.0241
G1 X125.62 Y100.661 E.01589
G1 X126.131 Y100.765 E.01635
G1 X126.601 Y100.919 E.01551
G1 X127.062 Y101.131 E.01591
G1 X127.702 Y101.548 E.02395
G1 X128.055 Y101.856 E.01469
G1 X128.362 Y102.185 E.01411
G1 X128.802 Y102.816 E.02412
G1 X129.013 Y103.234 E.01468
G1 X129.174 Y103.654 E.0141
G1 X129.345 Y104.406 E.02418
G1 X129.383 Y104.873 E.01469
G1 X129.374 Y105.323 E.01411
G1 X129.251 Y106.082 E.02411
G1 X129.116 Y106.513 E.01416
G1 X128.934 Y106.94 E.01455
G1 X128.539 Y107.593 E.02393
G1 X128.239 Y107.959 E.01484
G1 X127.916 Y108.278 E.01423
G1 X127.322 Y108.723 E.02327
G1 X126.899 Y108.956 E.01514
G1 X126.472 Y109.133 E.01449
G1 X125.744 Y109.324 E.0236
G1 X125.293 Y109.378 E.01424
G1 X124.819 Y109.384 E.01486
G1 X124.058 Y109.285 E.02406
G1 X123.583 Y109.152 E.01547
G1 X123.14 Y108.974 E.01497
G1 X122.677 Y108.721 E.01654
G1 X122.246 Y108.415 E.01657
G1 X121.733 Y107.928 E.02218
G1 X121.418 Y107.532 E.01587
G1 X121.16 Y107.12 E.01524
G1 X120.863 Y106.458 E.02275
G1 X120.727 Y105.99 E.01528
G1 X120.644 Y105.51 E.01527
G1 X120.619 Y104.797 E.02237
G1 X120.668 Y104.32 E.01503
