; generated by PrusaSlicer 2.6.0+MacOS-x64 on 2023-12-12 at 20:55:11 UTC


;
;
; 

; external perimeters extrusion width = 0.45mm
; perimeters extrusion width = 0.45mm
; infill extrusion width = 0.45mm
; solid infill extrusion width = 0.45mm
; top infill extrusion width = 0.40mm
; first layer extrusion width = 0.42mm

M73 P0 R3
M73 Q0 S3
M201 X1000 Y1000 Z200 E5000 ; sets maximum accelerations, mm/sec^2
M203 X200 Y200 Z12 E120 ; sets maximum feedrates, mm / sec
M204 S1250 T1250 ; sets acceleration (S) and retract acceleration (R), mm/sec^2
M205 X8.00 Y8.00 Z0.40 E4.50 ; sets the jerk limits, mm/sec
M205 S0 T0 ; sets the minimum extruding and travel feed rate, mm/sec
;TYPE:Custom
M862.3 P "MK3S" ; printer model check
M862.1 P0.4 ; nozzle diameter check
M115 U3.13.0 ; tell printer latest fw version
G90 ; use absolute coordinates
M83 ; extruder relative mode
M104 S215 ; set extruder temp
M140 S60 ; set bed temp
M190 S60 ; wait for bed temp
M109 S215 ; wait for extruder temp
G28 W ; home all without mesh bed level
G80 ; mesh bed leveling

G1 Z0.2 F720
G1 Y-3 F1000 ; go outside print area
G92 E0
G1 X60 E9 F1000 ; intro line
G1 X100 E12.5 F1000 ; intro line

G92 E0
M221 S95

; Don't change E values below. Excessive value can damage the printer.

M907 E538 ; set extruder motor current
G21 ; set units to millimeters
G90 ; use absolute coordinates
M83 ; use relative distances for extrusion
M900 K0.05 ; Filament gcode LA 1.5
M900 K30 ; Filament gcode LA 1.0
M107
;LAYER_CHANGE
;Z:0.2
;HEIGHT:0.2
;BEFORE_LAYER_CHANGE
G92 E0.0
;0.2


M73 P1 R3
M73 Q1 S3
G1 E-.8 F2100
M73 P2 R3
M73 Q2 S3
G1 Z.4 F720
;AFTER_LAYER_CHANGE
;0.2
G1 X117.237 Y98.591 F10800
M73 P3 R3
G1 Z.2 F720
M73 Q3 S3
G1 E.8 F2100
M204 S800
;TYPE:Skirt/Brim
;WIDTH:0.42
G1 F1200
G1 X117.894 Y97.872 E.03054
G1 X118.844 Y97.037 E.03966
G1 X119.734 Y96.423 E.0339
G1 X121.385 Y95.606 E.05776
G1 X122.3 Y95.304 E.03021
G1 X123.348 Y95.073 E.03365
G1 X125.18 Y94.936 E.0576
G1 X126.148 Y95.001 E.03042
G1 X127.195 Y95.179 E.0333
G1 X128.924 Y95.731 E.05691
G1 X129.803 Y96.154 E.03059
G1 X130.738 Y96.732 E.03447
G1 X132.107 Y97.872 E.05586
G1 X132.762 Y98.591 E.0305
G1 X133.427 Y99.497 E.03524
G1 X134.265 Y101.066 E.05577
M73 Q4 S3
G1 X134.6 Y101.97 E.03023
G1 X134.873 Y103.04 E.03462
G1 X135.065 Y105.046 E.06318
G1 X135.005 Y106.112 E.03348
G1 X134.852 Y107.078 E.03067
M73 P4 R3
G1 X134.313 Y108.821 E.0572
G1 X133.854 Y109.792 E.03368
G1 X133.356 Y110.618 E.03024
G1 X132.191 Y112.046 E.05778
G1 X131.395 Y112.776 E.03386
G1 X130.636 Y113.343 E.02971
G1 X129.018 Y114.232 E.05788
G1 X128.007 Y114.609 E.03383
G1 X126.776 Y114.911 E.03974
G1 X125.82 Y115.036 E.03023
G1 X124.716 Y115.064 E.03463
G1 X122.714 Y114.805 E.06329
G1 X121.691 Y114.509 E.03339
G1 X120.788 Y114.146 E.03051
G1 X119.201 Y113.229 E.05747
G1 X118.359 Y112.568 E.03356
G1 X117.667 Y111.899 E.03018
G1 X116.527 Y110.436 E.05815
G1 X115.997 Y109.505 E.03359
G1 X115.614 Y108.642 E.0296
G1 X115.106 Y106.858 E.05816
G1 X114.965 Y105.794 E.03365
G1 X114.934 Y104.85 E.02961
G1 X115.127 Y103.039 E.0571
G1 X115.4 Y101.97 E.03459
G1 X115.735 Y101.066 E.03023
G1 X116.573 Y99.497 E.05577
G1 X117.202 Y98.639 E.03336
M204 S1000
M73 Q5 S3
G1 X117.506 Y98.862 F10800
M204 S800
G1 F1200
G1 X118.156 Y98.143 E.03039
G1 X119.07 Y97.339 E.03817
G1 X119.94 Y96.739 E.03314
G1 X121.527 Y95.956 E.05549
M73 P5 R3
G1 X123.42 Y95.443 E.06149
G1 X125.18 Y95.313 E.05533
G1 X127.123 Y95.549 E.06137
G1 X128.783 Y96.08 E.05465
G1 X129.617 Y96.482 E.02903
G1 X130.532 Y97.048 E.03373
G1 X131.845 Y98.143 E.05361
G1 X132.468 Y98.826 E.02899
G1 X133.117 Y99.712 E.03444
G1 X133.921 Y101.219 E.05355
G1 X134.238 Y102.077 E.02868
G1 X134.506 Y103.124 E.03389
G1 X134.689 Y105.034 E.06016
G1 X134.484 Y106.994 E.06179
G1 X133.968 Y108.669 E.05495
G1 X133.046 Y110.402 E.06155
G1 X131.929 Y111.774 E.05547
G1 X130.43 Y113.027 E.06126
G1 X128.878 Y113.882 E.05556
G1 X127.889 Y114.251 E.0331
G1 X126.703 Y114.541 E.03828
G1 X125.796 Y114.66 E.02868
G1 X124.716 Y114.687 E.03387
G1 X122.81 Y114.44 E.06026
G1 X120.952 Y113.807 E.06154
M73 Q6 S3
G1 X119.426 Y112.927 E.05523
G1 X117.945 Y111.645 E.06142
G1 X116.85 Y110.242 E.0558
M73 P6 R3
G1 X115.968 Y108.511 E.06091
G1 X115.478 Y106.799 E.05583
G1 X115.311 Y104.861 E.06099
G1 X115.495 Y103.123 E.0548
G1 X115.762 Y102.077 E.03385
G1 X116.079 Y101.219 E.02868
G1 X116.883 Y99.712 E.05355
G1 X117.47 Y98.91 E.03116
M204 S1000
G1 X117.774 Y99.133 F10800
M204 S800
G1 F1200
G1 X118.417 Y98.414 E.03024
G1 X119.296 Y97.641 E.0367
G1 X120.146 Y97.055 E.03237
G1 X121.668 Y96.305 E.0532
G1 X123.492 Y95.813 E.05923
G1 X125.18 Y95.69 E.05307
G1 X127.051 Y95.919 E.0591
G1 X128.641 Y96.43 E.05236
G1 X129.432 Y96.811 E.02753
G1 X130.326 Y97.363 E.03294
G1 X131.583 Y98.415 E.05139
G1 X132.173 Y99.061 E.02743
G1 X132.807 Y99.926 E.03363
G1 X133.576 Y101.372 E.05135
G1 X134.138 Y103.207 E.06017
G1 X134.312 Y105.022 E.05717
M73 Q7 S3
G1 X134.116 Y106.91 E.05952
G1 X133.623 Y108.516 E.05267
G1 X132.737 Y110.187 E.0593
M73 P7 R3
G1 X131.668 Y111.503 E.05316
G1 X130.224 Y112.711 E.05903
G1 X128.737 Y113.532 E.05326
G1 X127.771 Y113.893 E.03233
G1 X126.631 Y114.171 E.03679
G1 X124.716 Y114.31 E.0602
G1 X122.906 Y114.075 E.05723
G1 X121.115 Y113.467 E.0593
G1 X119.652 Y112.625 E.05293
G1 X118.224 Y111.392 E.05915
G1 X117.173 Y110.048 E.0535
G1 X116.322 Y108.38 E.05871
G1 X115.851 Y106.741 E.05347
G1 X115.688 Y104.873 E.05879
G1 X115.862 Y103.207 E.05252
G1 X116.424 Y101.372 E.06017
G1 X117.193 Y99.926 E.05135
G1 X117.739 Y99.181 E.02896
M204 S1000
;WIPE_START
G1 F8640
G1 X118.417 Y98.414 E-.23638
G1 X119.296 Y97.641 E-.27028
G1 X120.146 Y97.055 E-.23839
G1 X120.359 Y96.95 E-.05495
;WIPE_END
G1 Z.6 F720
G1 X119.714 Y100.976 F10800
G1 Z.2 F720
M73 Q8 S3
G1 E.8 F2100
M204 S800
G1 F1200
G1 X120.517 Y100.091 E.03747
G1 X121.027 Y99.672 E.0207
M73 P8 R3
G1 X121.559 Y99.312 E.02014
G1 X122.696 Y98.764 E.03957
G1 X123.31 Y98.573 E.02016
G1 X123.956 Y98.435 E.02071
G1 X125.234 Y98.356 E.04015
G1 X125.969 Y98.426 E.02315
G1 X126.708 Y98.577 E.02365
G1 X127.406 Y98.805 E.02302
G1 X128.078 Y99.107 E.0231
G1 X129.141 Y99.8 E.03979
G1 X129.631 Y100.233 E.0205
G1 X130.07 Y100.698 E.02005
G1 X130.787 Y101.727 E.03932
G1 X131.08 Y102.315 E.0206
G1 X131.314 Y102.916 E.02022
G1 X131.594 Y104.144 E.03949
G1 X131.644 Y104.784 E.02013
G1 X131.634 Y105.444 E.0207
G1 X131.434 Y106.686 E.03944
G1 X131.238 Y107.299 E.02018
G1 X130.984 Y107.9 E.02046
G1 X130.338 Y108.967 E.03911
G1 X129.925 Y109.468 E.02036
G1 X129.454 Y109.939 E.02088
G1 X128.481 Y110.667 E.0381
G1 X127.901 Y110.984 E.02072
G1 X127.274 Y111.25 E.02136
G1 X126.082 Y111.563 E.03864
G1 X125.422 Y111.637 E.02082
G1 X124.767 Y111.648 E.02054
G1 X123.525 Y111.485 E.03928
G1 X122.896 Y111.308 E.02049
G1 X122.298 Y111.078 E.02009
G1 X121.194 Y110.454 E.03976
G1 X120.669 Y110.045 E.02087
G1 X120.178 Y109.581 E.02118
G1 X119.415 Y108.611 E.0387
G1 X119.054 Y107.974 E.02296
G1 X118.764 Y107.306 E.02283
G1 X118.54 Y106.572 E.02406
G1 X118.403 Y105.834 E.02353
G1 X118.36 Y104.668 E.03658
G1 X118.433 Y103.969 E.02204
G1 X118.57 Y103.306 E.02123
G1 X119.003 Y102.13 E.03929
M73 Q9 S3
G1 X119.316 Y101.555 E.02053
G1 X119.674 Y101.02 E.02018
M204 S1000
G1 X119.981 Y101.24 F10800
M204 S800
G1 F1200
G1 X120.768 Y100.374 E.03669
G1 X121.246 Y99.98 E.01942
M73 P9 R3
G1 X121.759 Y99.632 E.01944
G1 X122.822 Y99.12 E.03699
G1 X123.414 Y98.935 E.01945
G1 X124.021 Y98.807 E.01945
G1 X125.213 Y98.733 E.03745
G1 X125.904 Y98.797 E.02176
G1 X126.602 Y98.939 E.02233
G1 X127.261 Y99.153 E.02172
G1 X127.91 Y99.445 E.02231
G1 X128.902 Y100.092 E.03713
G1 X129.363 Y100.498 E.01926
G1 X129.786 Y100.947 E.01934
G1 X130.456 Y101.908 E.03673
G1 X130.732 Y102.46 E.01935
G1 X130.958 Y103.04 E.01952
G1 X131.219 Y104.187 E.03688
G1 X131.267 Y104.804 E.0194
G1 X131.258 Y105.424 E.01944
G1 X131.07 Y106.585 E.03688
G1 X130.882 Y107.176 E.01945
G1 X130.643 Y107.74 E.01921
G1 X130.039 Y108.738 E.03658
G1 X129.64 Y109.221 E.01964
G1 X129.197 Y109.662 E.0196
G1 X128.288 Y110.343 E.03561
G1 X127.728 Y110.649 E.02001
G1 X127.14 Y110.897 E.02001
G1 X126.026 Y111.189 E.03611
G1 X125.406 Y111.26 E.01957
G1 X124.775 Y111.27 E.01979
G1 X123.614 Y111.119 E.03671
G1 X123.023 Y110.953 E.01925
G1 X122.446 Y110.731 E.01938
G1 X121.415 Y110.148 E.03714
G1 X120.908 Y109.753 E.02015
G1 X120.448 Y109.317 E.01987
G1 X119.736 Y108.412 E.0361
G1 X119.396 Y107.815 E.02154
G1 X119.115 Y107.166 E.02217
G1 X118.904 Y106.473 E.02271
G1 X118.777 Y105.78 E.02209
G1 X118.737 Y104.668 E.03489
G1 X118.806 Y104.019 E.02046
G1 X118.936 Y103.396 E.01995
G1 X119.341 Y102.298 E.03669
G1 X119.634 Y101.758 E.01926
G1 X119.947 Y101.29 E.01765
M204 S1000
M73 Q10 S3
G1 X120.26 Y101.5 F10800
M204 S800
G1 F1200
G1 X121.018 Y100.656 E.03557
G1 X121.478 Y100.276 E.01871
G1 X121.959 Y99.952 E.01818
G1 X122.948 Y99.476 E.03441
G1 X123.501 Y99.302 E.01818
M73 P10 R3
G1 X124.085 Y99.179 E.01871
G1 X125.193 Y99.11 E.03481
G1 X125.859 Y99.172 E.02097
G1 X126.515 Y99.307 E.021
G1 X127.134 Y99.508 E.02041
G1 X127.741 Y99.783 E.02089
G1 X128.663 Y100.384 E.03451
G1 X129.107 Y100.775 E.01855
G1 X129.502 Y101.195 E.01808
G1 X130.125 Y102.089 E.03417
G1 X130.391 Y102.621 E.01865
G1 X130.601 Y103.164 E.01825
G1 X130.844 Y104.23 E.03428
G1 X130.89 Y104.808 E.01818
G1 X130.881 Y105.405 E.01872
G1 X130.706 Y106.484 E.03427
G1 X130.531 Y107.037 E.01819
G1 X130.301 Y107.581 E.01852
G1 X129.739 Y108.509 E.03402
G1 X129.367 Y108.96 E.01833
G1 X128.94 Y109.386 E.01891
G1 X128.096 Y110.018 E.03306
G1 X127.556 Y110.313 E.01929
G1 X127.006 Y110.545 E.01872
G1 X125.97 Y110.816 E.03358
G1 X125.373 Y110.884 E.01884
G1 X124.783 Y110.893 E.0185
G1 X123.703 Y110.752 E.03415
G1 X123.134 Y110.592 E.01853
G1 X122.595 Y110.385 E.0181
G1 X121.635 Y109.842 E.03458
G1 X121.161 Y109.473 E.01883
G1 X120.717 Y109.052 E.01918
G1 X120.056 Y108.213 E.03349
G1 X119.737 Y107.654 E.02018
G1 X119.472 Y107.045 E.02082
G1 X119.272 Y106.394 E.02135
G1 X119.15 Y105.726 E.02129
G1 X119.114 Y104.695 E.03235
G1 X119.178 Y104.086 E.0192
G1 X119.303 Y103.487 E.01919
G1 X119.679 Y102.466 E.03411
G1 X119.961 Y101.945 E.01858
G1 X120.227 Y101.55 E.01493
M204 S1000
G1 X120.54 Y101.76 F10800
M204 S800
G1 F1200
G1 X121.268 Y100.938 E.03443
G1 X121.697 Y100.584 E.01744
G1 X122.159 Y100.272 E.01748
G1 X123.073 Y99.831 E.03182
G1 X123.605 Y99.665 E.01747
G1 X124.149 Y99.551 E.01743
M73 Q11 S3
G1 X125.173 Y99.486 E.03217
G1 X125.794 Y99.543 E.01955
G1 X126.409 Y99.669 E.01968
G1 X127.007 Y99.863 E.01971
G1 X127.572 Y100.12 E.01946
G1 X128.425 Y100.676 E.03193
M73 P11 R3
G1 X128.838 Y101.04 E.01726
G1 X129.217 Y101.443 E.01735
G1 X129.794 Y102.271 E.03164
G1 X130.043 Y102.765 E.01735
G1 X130.245 Y103.287 E.01755
G1 X130.47 Y104.274 E.03174
G1 X130.514 Y104.828 E.01742
G1 X130.504 Y105.385 E.01747
G1 X130.343 Y106.383 E.0317
G1 X130.174 Y106.914 E.01747
G1 X129.959 Y107.421 E.01727
G1 X129.439 Y108.279 E.03146
G1 X129.082 Y108.713 E.01762
G1 X128.684 Y109.109 E.0176
G1 X127.902 Y109.694 E.03062
G1 X127.401 Y109.97 E.01793
G1 X126.872 Y110.192 E.01799
G1 X125.913 Y110.443 E.03108
G1 X125.357 Y110.507 E.01755
G1 X124.791 Y110.516 E.01775
G1 X123.791 Y110.385 E.03162
G1 X123.261 Y110.237 E.01725
G1 X122.743 Y110.038 E.0174
G1 X121.855 Y109.535 E.032
G1 X121.399 Y109.181 E.0181
G1 X120.987 Y108.789 E.01783
G1 X120.377 Y108.014 E.03092
G1 X120.07 Y107.477 E.01939
G1 X119.822 Y106.905 E.01955
G1 X119.636 Y106.295 E.02
G1 X119.524 Y105.672 E.01985
G1 X119.49 Y104.721 E.02984
G1 X119.552 Y104.136 E.01844
G1 X119.669 Y103.578 E.01788
G1 X120.017 Y102.633 E.03158
G1 X120.279 Y102.148 E.01728
G1 X120.506 Y101.81 E.01277
M204 S1000
G1 X120.819 Y102.02 F10800
M204 S800
G1 F1200
G1 X120.896 Y101.905 E.00434
G1 X121.519 Y101.22 E.02903
G1 X121.916 Y100.891 E.01617
G1 X122.358 Y100.592 E.01673
G1 X123.199 Y100.187 E.02927
G1 X123.708 Y100.028 E.01672
G1 X124.213 Y99.922 E.01618
G1 X125.153 Y99.863 E.02953
G1 X125.749 Y99.918 E.01877
G1 X126.322 Y100.036 E.01834
G1 X126.88 Y100.218 E.0184
G1 X127.402 Y100.457 E.018
G1 X128.186 Y100.968 E.02934
G1 X128.583 Y101.317 E.01657
G1 X128.933 Y101.691 E.01606
G1 X129.463 Y102.452 E.02908
G1 X129.701 Y102.926 E.01663
G1 X129.888 Y103.41 E.01627
M73 Q12 S3
G1 X130.095 Y104.318 E.0292
G1 X130.136 Y104.831 E.01614
G1 X130.127 Y105.365 E.01675
G1 X129.979 Y106.283 E.02915
G1 X129.824 Y106.775 E.01617
M73 P12 R3
G1 X129.617 Y107.261 E.01656
G1 X129.139 Y108.051 E.02895
G1 X128.809 Y108.453 E.01631
G1 X128.427 Y108.833 E.01689
G1 X127.709 Y109.37 E.02811
G1 X127.228 Y109.634 E.0172
G1 X126.739 Y109.839 E.01663
G1 X125.857 Y110.07 E.02859
G1 X125.324 Y110.132 E.01682
G1 X124.799 Y110.139 E.01646
G1 X123.88 Y110.018 E.02906
G1 X123.371 Y109.876 E.01657
G1 X122.892 Y109.691 E.0161
G1 X122.075 Y109.229 E.02943
G1 X121.652 Y108.901 E.01678
G1 X121.257 Y108.525 E.0171
G1 X120.697 Y107.815 E.02835
G1 X120.403 Y107.299 E.01862
G1 X120.173 Y106.766 E.0182
G1 X120.001 Y106.197 E.01864
G1 X119.897 Y105.619 E.01841
G1 X119.867 Y104.746 E.02739
G1 X119.923 Y104.203 E.01712
G1 X120.035 Y103.669 E.01711
G1 X120.355 Y102.801 E.02901
G1 X120.607 Y102.335 E.01661
G1 X120.785 Y102.07 E.01001
M204 S1000
G1 X121.098 Y102.28 F10800
M204 S800
G1 F1200
G1 X121.201 Y102.127 E.00578
G1 X121.77 Y101.501 E.02652
G1 X122.149 Y101.187 E.01543
G1 X122.558 Y100.912 E.01545
G1 X123.326 Y100.543 E.02672
G1 X123.795 Y100.395 E.01542
G1 X124.277 Y100.294 E.01544
G1 X125.134 Y100.24 E.02692
G1 X125.684 Y100.289 E.01731
G1 X126.216 Y100.398 E.01703
G1 X126.733 Y100.566 E.01704
G1 X127.232 Y100.794 E.0172
G1 X127.947 Y101.261 E.02678
G1 X128.314 Y101.582 E.01529
G1 X128.648 Y101.939 E.01533
G1 X129.133 Y102.634 E.02657
G1 X129.353 Y103.071 E.01534
G1 X129.531 Y103.533 E.01552
G1 X129.72 Y104.362 E.02666
G1 X129.76 Y104.852 E.01541
G1 X129.751 Y105.344 E.01543
G1 X129.615 Y106.183 E.02665
G1 X129.467 Y106.653 E.01545
G1 X129.276 Y107.1 E.01524
G1 X128.839 Y107.822 E.02646
G1 X128.524 Y108.206 E.01557
G1 X128.171 Y108.556 E.01559
G1 X127.516 Y109.046 E.02565
G1 X127.073 Y109.29 E.01586
G1 X126.605 Y109.486 E.01591
G1 X125.8 Y109.697 E.02609
G1 X125.309 Y109.755 E.0155
G1 X124.808 Y109.762 E.01571
G1 X123.968 Y109.651 E.02657
G1 X123.498 Y109.521 E.01529
M73 Q13 S3
G1 X123.041 Y109.344 E.01537
G1 X122.295 Y108.922 E.02687
G1 X121.891 Y108.609 E.01602
G1 X121.527 Y108.262 E.01577
G1 X121.017 Y107.615 E.02583
M73 P13 R3
G1 X120.744 Y107.139 E.01721
G1 X120.53 Y106.645 E.01688
G1 X120.37 Y106.119 E.01724
G1 X120.271 Y105.566 E.01761
G1 X120.243 Y104.772 E.02491
G1 X120.294 Y104.271 E.01579
G1 X120.401 Y103.761 E.01634
G1 X120.694 Y102.968 E.02651
G1 X120.925 Y102.538 E.0153
G1 X121.065 Y102.33 E.00786
M204 S1000
G1 X121.377 Y102.541 F10800
M204 S800
G1 F1200
G1 X121.506 Y102.35 E.00723
G1 X122.022 Y101.783 E.02404
G1 X122.368 Y101.495 E.01412
G1 X122.757 Y101.233 E.01471
G1 X123.452 Y100.898 E.02419
G1 X123.899 Y100.757 E.0147
G1 X124.34 Y100.666 E.01412
G1 X125.116 Y100.617 E.02438
G1 X125.62 Y100.661 E.01586
G1 X126.13 Y100.765 E.01632
G1 X126.605 Y100.921 E.01568
G1 X127.062 Y101.131 E.01577
G1 X127.709 Y101.553 E.02422
G1 X128.058 Y101.859 E.01455
G1 X128.364 Y102.186 E.01404
G1 X128.802 Y102.816 E.02406
G1 X129.012 Y103.232 E.01461
G1 X129.174 Y103.655 E.0142
G1 X129.345 Y104.406 E.02415
G1 X129.383 Y104.873 E.01469
G1 X129.374 Y105.323 E.01411
G1 X129.251 Y106.083 E.02414
G1 X129.116 Y106.514 E.01416
G1 X128.934 Y106.94 E.01452
G1 X128.539 Y107.593 E.02393
G1 X128.239 Y107.959 E.01484
G1 X127.916 Y108.278 E.01423
G1 X127.322 Y108.723 E.02327
G1 X126.917 Y108.947 E.01451
G1 X126.472 Y109.133 E.01512
G1 X125.743 Y109.324 E.02363
G1 X125.275 Y109.379 E.01477
G1 X124.817 Y109.384 E.01436
G1 X124.056 Y109.284 E.02407
G1 X123.608 Y109.16 E.01457
G1 X123.19 Y108.998 E.01406
G1 X122.515 Y108.615 E.02433
G1 X122.143 Y108.329 E.01471
G1 X121.814 Y108.016 E.01424
G1 X121.337 Y107.414 E.02408
G1 X121.086 Y106.978 E.01577
G1 X120.888 Y106.524 E.01553
G1 X120.734 Y106.021 E.01649
G1 X120.645 Y105.514 E.01614
G1 X120.619 Y104.797 E.0225
G1 X120.668 Y104.32 E.01503
